X: 10673
M: 2/4
L: 1/16
K: D
|:\
f2AA A2f2 | g2A2f2A2 | e2BB B2e2 | c2AA A2a2 |\
f2AA A2f2 | g2A2f2A2 | e2AA A2Bc | d2(fe) d4 ::\
d4 d4 | f4 gfed | c2A2c2e2 | a2e2c2A2 |\
d4 d4 | f4 gfed | c2e2a2c2 | d4 z4 :|
|:\
d4 d4 | f4 gfed | c2A2c2e2 | a2e2c2A2 |\
d4 d4 | f4 gfed | c2e2a2c2 | d4 z4 :|


